modules/zondicons/icons/search.svg

<?xml version="1.0" encoding="UTF-8" standalone="no"?>
<svg width="20px" height="20px" viewBox="0 0 20 20" version="1.1" xmlns="http://www.w3.org/2000/svg" xmlns:xlink="http://www.w3.org/1999/xlink">
    <!-- Generator: Sketch 3.7.2 (28276) - http://www.bohemiancoding.com/sketch -->
    <title>search</title>
    <desc>Created with Sketch.</desc>
    <defs></defs>
    <g id="Page-1" stroke="none" stroke-width="1" fill="none" fill-rule="evenodd">
        <g id="search" fill="#000000">
            <path d="M11.1921711,12.6063847 C10.0235906,13.4815965 8.5723351,14 7,14 C3.13400675,14 0,10.8659932 0,7 C0,3.13400675 3.13400675,0 7,0 C10.8659932,0 14,3.13400675 14,7 C14,8.5723351 13.4815965,10.0235906 12.6063847,11.1921711 L14.0162265,12.6020129 C14.6819842,12.4223519 15.4217116,12.5932845 15.9484049,13.1199778 L18.7795171,15.95109 C19.5598243,16.7313971 19.5646685,17.9916807 18.7781746,18.7781746 C17.997126,19.5592232 16.736965,19.5653921 15.95109,18.7795171 L13.1199778,15.9484049 C12.5960188,15.4244459 12.4217025,14.6840739 12.6018353,14.0160489 L11.1921711,12.6063847 Z M7,12 C9.76142375,12 12,9.76142375 12,7 C12,4.23857625 9.76142375,2 7,2 C4.23857625,2 2,4.23857625 2,7 C2,9.76142375 4.23857625,12 7,12 Z" id="Combined-Shape"></path>
        </g>
    </g>
</svg>

<svg width="20" height="20" viewBox="0 0 20 20" xmlns="http://www.w3.org/2000/svg"><path d="M11.192 12.606a7 7 0 1 1 1.414-1.414l1.41 1.41a1.991 1.991 0 0 1 1.932.518l2.832 2.831c.78.78.785 2.04-.002 2.827a1.994 1.994 0 0 1-2.827.002l-2.831-2.832a1.994 1.994 0 0 1-.518-1.932l-1.41-1.41zM7 12A5 5 0 1 0 7 2a5 5 0 0 0 0 10z" fill="#000" fill-rule="evenodd"/></svg>
